X: 20271
T: the Maid in the Mill
%R: reel
B: James Oswald "The Caledonian Pocket Companion" v.2 p.27 #1
Z: 2019 John Chambers <jc:trillian.mit.edu>
M: C|
L: 1/8
K: D
%%slurgraces 1
%%graceslurs 1
D2 |\
{DE}F2A2 (Bc)(dB) | (AF)(ED) E3D |\
{DE}F2A2 d2(d/e/f) | {f}e6 (de) |\
(fe)(dB) d3B | (AB)(dF) E3A |
F2(dB) E2(A^G) | A6 :: e2 |\
(dc)(BA) (Bc)(dB) | F2(B^A) B3d |\
c2(e/f/g) (fe)(dc) | B6 d2 |
(dA) (GF) G3A | BGcA dBec |\
d2(ef) (gf)(ed) | d4 Tc3B |\
(AF)(BA) (GF)(ED) | D6 :|
